!!!OTL: Ich habe den Fr&uuml;hling gesehen (1-31), S. 82f
!!!id: K1080
**kern
*clefG2
*k[b-]
*F:
{4c
=1
4f
8a
8cc
4cc
8b-
8e
=2
4g
4f}
4r
=3
{8f
8f
=4
8e
8g
8b-
8dd
4dd
8cc
8g
=5
2a}
4r
=6
{8f
8g
=7
8.a
16a
8a
8a
8a
8f
8.dd
16cc
=8
8cc
8b-
4b-}
4r
=9
{8cc
8cc
=10
4ee
8dd
8dd
4cc
8b-
8b-
=11
2a}
4r
=12
{8f
8g
=13
8.a
16a
8a
8a
8a
8f
8.dd
16cc
=14
8cc
8b-
4b-}
4r
=15
{8cc
8cc
=16
4ee
8dd
8dd
4cc
8b-
8e
=17
2f}
4r
==
*-
!!!minrhy: 16
!!!meters: 4/4 ]  ZZ[6
!!!cut: Ich habe den Fr&uuml;hling gesehen (1-31), S. 82f
!!!reg: Luxemburg
!!!trd: KINTZELE, Guillaume: An der Ucht, Bd. 1, Luxemburg 1926
!!!rhy1: X__  X__X_X_X__X_X_  X__X__0_   (x2)
!!!rhy2: X_X_  X_X_X_X_X__X_X_  X___0_
!!!key: K1080  16  F 4/4 ]  ZZ[6
!!!mod: HEPTATONIK IONISCH]  AMBITUS[10
!!!kad: 134341
!!!akz: 152_-763_335_753_335_751_
!!!fot: 'a__b__c__d__c__dw_
!!!for: 'a__b__c__aw_c__aw_
!!!fok: '^a_^a_^a_^d_^a_^d_
!! PHRAS[AUFTAKTIG]
!!!fkt: Liebesklage
!!!bem: in der Quelle mit einer 2. Stimme versehen
!! KINTZELE
!! PR[39] 2K[3] 2G[6] 3K[3] 3G[6] 4A[3] 4Ü[0] 5A[3] 6K[0] 6G[0]
!! 7K[0] 7G[0] 8A[0] MEHR[0] SI[26] ABS[31] SR[10] SP[16]
!! ST[6] 2k[3] 2g[16] 3k[10] 3g[6] 4d[0] 4ü[0] 5d[0] 6k[0] 6g[0]
!! 7k[0] 7g[0] 8d[0] mehr[0] si[35] dm[-9] sr[19] sp[16]
!! 1F[26] 2F[53] 3F[18] 4F[0] LF[0] 2P[3] 3P[0] 4P[0] TRI[0] DF[4] AB[34]
!! TF[0] U3K[0] U3[0] U4[0] U4Ü[0] U5[0] U6K[0] U6[0] U7K[0] U7[0]
!! N1[19] N2K[0] N2[19] N3K[0] N3[28] N4[6] N4Ü[0] N5[16] N6K[0] N6[9]
!!!n7k: 0] N7[0] O1[3] O2K[0] O2[0] O3K[0] O3[0] HÖ[0
!!!RNB: symbol: &uuml;  = u umlaut (UTF-8: Ã¼)
